X:1
T:My Maryanne
C:Trad.
R:Reel
M:2/2
K:C
|  c3B cAGc | Adde dcAG | c3B cAGE | F2DE FGAB |
  c2cB cAGc | Adde dcAB | cded cAGE | FAGE FDD2 ||
   egge c3d | eaab aged | eccc dged | cAGA c3d |
   egge c3d | eaab aged | eccc dged | cAGA cGAB |
